X:1056
T:Da Galley Watch
T:Galley Watch, The
R:reel
O:Shetland
Z:id:hn-reel-1056
M:C|
L:1/8
K:D
f2df afdf | e2ce gece | f2df afdf |1 egfe fdde :|2 egfe fddB ||
|: AGFG A2AB | AGFD E2E2 | DEFG AGFG |1 Agfe fddB :|2 Agfe fdde ||

